X: 1
T: Illusionary World
M: 6/8
L: 1/8
R: jig
K: Amin
A2B AGE|AGE DEG|A2B AGE|^FGE DEG|
A2B AGE|AGE DEG|A2B AGE|^FGE DEG|
c2B AGE|BA^F GED|EcB AGE|G2E DEG|
c2B AGE|BA^F GED|EcB AGE|G2E DEG|
